dist/svgs/team-bus.svg

<svg xmlns="http://www.w3.org/2000/svg" viewBox="0 0 512 512"><path d="M21 169q22 0 22 21v64q0 21-22 21-9 0-15-5.5T0 254v-64q0-10 6-15.5t15-5.5zm470 0q9 0 15 5.5t6 15.5v64q0 10-6 15.5t-15 5.5q-22 0-22-21v-64q0-21 22-21zM384 19q27 0 45.5 18.5T448 83v320q0 10-6 16t-15 6v42q0 22-22 22h-64q-9 0-15-6t-6-16v-42H192v42q0 10-6 16t-15 6h-64q-22 0-22-22v-42q-9 0-15-6t-6-16V83q0-27 18.5-45.5T128 19h256zM192 361q21 0 21-22 0-9-5.5-15t-15.5-6h-43q-9 0-15 6t-6 15q0 10 6 16t15 6h43zM405 90q0-11-8.5-19.5T377 62H135q-11 0-19.5 8.5T107 90v121h298V90z"/></svg>

<?xml version="1.0" encoding="UTF-8" standalone="no"?><svg   xmlns:svg="http://www.w3.org/2000/svg"   xmlns="http://www.w3.org/2000/svg"   version="1.1"   width="512"   height="512"   viewBox="0 0 512 512">  <path     d="M21 169Q43 169 43 190V254Q43 275 21 275Q12 275 6 269.5T0 254V190Q0 180 6 174.5T21 169zM491 169Q500 169 506 174.5T512 190V254Q512 264 506 269.5T491 275Q469 275 469 254V190Q469 169 491 169zM384 19Q411 19 429.5 37.5T448 83V403Q448 413 442 419T427 425V467Q427 489 405 489H341Q332 489 326 483T320 467V425H192V467Q192 477 186 483T171 489H107Q85 489 85 467V425Q76 425 70 419T64 403V83Q64 56 82.5 37.5T128 19H384zM192 361Q213 361 213 339Q213 330 207.5 324T192 318H149Q140 318 134 324T128 339Q128 349 134 355T149 361H192zM405 90Q405 79 396.5 70.5T377 62H135Q124 62 115.5 70.5T107 90V211H405V90z"     id="team-bus" /></svg>
